_site/images/icons/monitor-screen.svg

<svg height="23" viewBox="0 0 23 23" width="23" xmlns="http://www.w3.org/2000/svg"><path d="m19.55 0h-16.1c-1.90538239 0-3.45 1.54461761-3.45 3.45v11.5c0 1.9053824 1.54461761 3.45 3.45 3.45h3.45v2.3h-3.45c-.63512746 0-1.15.5148725-1.15 1.15s.51487254 1.15 1.15 1.15h16.1c.6351275 0 1.15-.5148725 1.15-1.15s-.5148725-1.15-1.15-1.15h-3.45v-2.3h3.45c1.9053824 0 3.45-1.5446176 3.45-3.45v-11.5c0-1.90538239-1.5446176-3.45-3.45-3.45zm-5.75 20.7h-4.6v-2.3h4.6zm6.9-5.75c0 .6351275-.5148725 1.15-1.15 1.15h-16.1c-.63512746 0-1.15-.5148725-1.15-1.15v-1.15h18.4zm0-3.45h-18.4v-8.05c0-.63512746.51487254-1.15 1.15-1.15h16.1c.6351275 0 1.15.51487254 1.15 1.15z" fill="#0b7a76"/></svg>

<?xml version="1.0" encoding="UTF-8"?>
<svg width="23px" height="23px" viewBox="0 0 23 23" version="1.1" xmlns="http://www.w3.org/2000/svg" xmlns:xlink="http://www.w3.org/1999/xlink">
    <!-- Generator: Sketch 52.6 (67491) - http://www.bohemiancoding.com/sketch -->
    <title>Group 9</title>
    <desc>Created with Sketch.</desc>
    <g id="Landing-page" stroke="none" stroke-width="1" fill="none" fill-rule="evenodd">
        <g id="1.1--Home" transform="translate(-1278.000000, -3673.000000)" fill="#0B7A76" fill-rule="nonzero">
            <g id="how-it-works-and-security" transform="translate(0.000000, 2983.000000)">
                <g id="Group-16" transform="translate(950.000000, 203.000000)">
                    <g id="Group-15">
                        <g id="Group-5" transform="translate(210.000000, 483.000000)">
                            <g id="Group-9" transform="translate(118.000000, 4.000000)">
                                <g id="code">
                                    <g id="desktop-alt">
                                        <path d="M19.55,5.10702591e-16 L3.45,5.10702591e-16 C1.54461761,0 5.10702591e-16,1.54461761 0,3.45 L0,14.95 C5.10702591e-16,16.8553824 1.54461761,18.4 3.45,18.4 L6.9,18.4 L6.9,20.7 L3.45,20.7 C2.81487254,20.7 2.3,21.2148725 2.3,21.85 C2.3,22.4851275 2.81487254,23 3.45,23 L19.55,23 C20.1851275,23 20.7,22.4851275 20.7,21.85 C20.7,21.2148725 20.1851275,20.7 19.55,20.7 L16.1,20.7 L16.1,18.4 L19.55,18.4 C21.4553824,18.4 23,16.8553824 23,14.95 L23,3.45 C23,1.54461761 21.4553824,0 19.55,5.10702591e-16 Z M13.8,20.7 L9.2,20.7 L9.2,18.4 L13.8,18.4 L13.8,20.7 Z M20.7,14.95 C20.7,15.5851275 20.1851275,16.1 19.55,16.1 L3.45,16.1 C2.81487254,16.1 2.3,15.5851275 2.3,14.95 L2.3,13.8 L20.7,13.8 L20.7,14.95 Z M20.7,11.5 L2.3,11.5 L2.3,3.45 C2.3,2.81487254 2.81487254,2.3 3.45,2.3 L19.55,2.3 C20.1851275,2.3 20.7,2.81487254 20.7,3.45 L20.7,11.5 Z" id="Shape"></path>
                                    </g>
                                </g>
                            </g>
                        </g>
                    </g>
                </g>
            </g>
        </g>
    </g>
</svg>
